flaticon/interaction/price-tag-3.svg

<svg xmlns="http://www.w3.org/2000/svg" width="32" height="32" viewBox="0 0 24 24">
    <path d="M 20.839844 16.039062 L 18.582031 19.285156 L 16.984375 17.976562 C 16.8125 17.835938 16.558594 17.863281 16.417969 18.035156 C 16.273438 18.207031 16.300781 18.460938 16.472656 18.601562 L 18.40625 20.1875 C 18.480469 20.25 18.570312 20.28125 18.664062 20.28125 C 18.679688 20.28125 18.699219 20.28125 18.71875 20.277344 C 18.828125 20.261719 18.929688 20.199219 18.992188 20.109375 L 21.503906 16.5 C 21.632812 16.316406 21.585938 16.066406 21.402344 15.9375 C 21.21875 15.808594 20.96875 15.855469 20.839844 16.039062 Z M 20.839844 16.039062"/>
    <path d="M 20.234375 13.226562 L 22.789062 10.679688 L 22.789062 4.96875 L 18.296875 0.488281 L 12.640625 0.488281 L 12.335938 0.792969 L 2.421875 10.671875 L 2.425781 10.675781 L 0 13.09375 L 10.15625 23.273438 L 13.710938 19.730469 C 14.347656 21.914062 16.363281 23.511719 18.75 23.511719 C 21.644531 23.511719 24 21.15625 24 18.261719 C 24 15.882812 22.40625 13.871094 20.234375 13.226562 Z M 17.964844 1.296875 L 21.980469 5.300781 L 21.980469 10.34375 L 19.277344 13.035156 C 19.238281 13.03125 19.199219 13.035156 19.164062 13.03125 C 19.132812 13.027344 19.101562 13.023438 19.074219 13.023438 C 19.050781 13.019531 19.023438 13.019531 19.003906 13.015625 C 18.914062 13.011719 18.832031 13.007812 18.75 13.007812 C 15.851562 13.007812 13.496094 15.363281 13.496094 18.261719 C 13.496094 18.339844 13.5 18.421875 13.503906 18.507812 C 13.507812 18.535156 13.511719 18.566406 13.511719 18.597656 C 13.515625 18.625 13.515625 18.652344 13.519531 18.679688 C 13.519531 18.707031 13.519531 18.742188 13.523438 18.769531 L 12.582031 19.707031 L 3.570312 10.675781 L 12.976562 1.296875 Z M 1.144531 13.097656 L 2.996094 11.246094 L 12.015625 20.28125 L 10.160156 22.132812 Z M 18.75 22.703125 C 16.507812 22.703125 14.652344 21.035156 14.351562 18.875 L 14.351562 18.867188 C 14.34375 18.800781 14.339844 18.746094 14.332031 18.683594 C 14.328125 18.65625 14.324219 18.625 14.320312 18.597656 C 14.3125 18.484375 14.304688 18.375 14.304688 18.261719 C 14.304688 15.8125 16.296875 13.816406 18.75 13.816406 C 18.863281 13.816406 18.972656 13.824219 19.085938 13.835938 C 19.101562 13.835938 19.121094 13.839844 19.140625 13.839844 C 19.214844 13.847656 19.285156 13.855469 19.367188 13.867188 L 19.375 13.867188 C 21.527344 14.171875 23.191406 16.023438 23.191406 18.261719 C 23.191406 20.710938 21.199219 22.703125 18.75 22.703125 Z M 18.75 22.703125"/>
    <path d="M 17.140625 7.300781 C 18.015625 7.300781 18.730469 6.589844 18.730469 5.710938 C 18.730469 4.835938 18.015625 4.121094 17.140625 4.121094 C 16.261719 4.121094 15.550781 4.835938 15.550781 5.710938 C 15.550781 6.589844 16.261719 7.300781 17.140625 7.300781 Z M 17.140625 4.929688 C 17.570312 4.929688 17.921875 5.28125 17.921875 5.714844 C 17.921875 6.144531 17.570312 6.496094 17.140625 6.496094 C 16.707031 6.496094 16.355469 6.144531 16.355469 5.714844 C 16.355469 5.28125 16.707031 4.929688 17.140625 4.929688 Z M 17.140625 4.929688"/>
</svg>

<svg xmlns="http://www.w3.org/2000/svg" width="32" height="32" viewBox="0 0 24 24">
    <path d="M20.84 16.04l-2.258 3.245-1.598-1.308a.403.403 0 0 0-.566.058.4.4 0 0 0 .055.567l1.933 1.585a.396.396 0 0 0 .258.094c.016 0 .035 0 .055-.004a.408.408 0 0 0 .273-.168l2.512-3.609a.403.403 0 0 0-.102-.563.403.403 0 0 0-.562.102zm0 0"/>
    <path d="M20.234 13.227l2.555-2.547V4.969L18.297.489H12.64l-.305.304-9.914 9.879.004.004L0 13.094l10.156 10.18 3.555-3.544a5.254 5.254 0 0 0 5.039 3.782 5.256 5.256 0 0 0 5.25-5.25c0-2.38-1.594-4.39-3.766-5.035zm-2.27-11.93L21.98 5.3v5.043l-2.703 2.691c-.039-.004-.078 0-.113-.004a.763.763 0 0 0-.09-.008c-.023-.003-.05-.003-.07-.007-.09-.004-.172-.008-.254-.008a5.258 5.258 0 0 0-5.254 5.254c0 .078.004.16.008.246a.641.641 0 0 1 .008.09c.004.027.004.054.008.082 0 .027 0 .062.003.09l-.941.937-9.012-9.031 9.407-9.38zm-16.82 11.8l1.852-1.85 9.02 9.034-1.856 1.852zm17.606 9.606a4.447 4.447 0 0 1-4.398-3.828v-.008c-.008-.066-.012-.12-.02-.183l-.012-.086c-.008-.114-.015-.223-.015-.336a4.45 4.45 0 0 1 4.445-4.446c.113 0 .223.008.336.02.016 0 .035.004.055.004.074.008.144.015.226.027h.008a4.446 4.446 0 0 1 3.816 4.395 4.446 4.446 0 0 1-4.441 4.441zm0 0"/>
    <path d="M17.14 7.3c.876 0 1.59-.71 1.59-1.59 0-.874-.714-1.589-1.59-1.589a1.589 1.589 0 1 0 0 3.18zm0-2.37a.784.784 0 0 1 0 1.566.784.784 0 1 1 0-1.566zm0 0"/>
</svg>
